X: 35559
T: Rusty Gulley, The
R: three-two
M: 3/2
K: Gmajor
|:d4 ABc2 d2A2|F2A2- A2c2 B2A2|d4 Bcd2 e2E2|G2B2- B2d2 c2B2:|
|:d2g2 f2d2 fga2|d2g2- g2d2 fgaf|e2g2 f2a2 g2b2|c'2e2- e2d2 c2A2:|
|:d4 ABc2 d2A2|F2A2 A2c2 B2A2|d4 Bcd2 e2E2|D2G2 Bcd2 c2B2:|
|:d2g2 f2d2 fga2|d2g2 g2d2 fgaf|e2g2 f2a2 g2b2|c'2e2 e2d2 cBA2:|

